X:420
T:Trasiga rocken
R:Polska
O:Torsåker, Gästrikland
S:efter J Högblom
W:Stackars mig, som ska ha dig, som har den trasiga rocken.
M:3/4
L:1/8
K:Dm
A|:A3/A/f2e3/f/|d3/^c/A2f2|e3/f/d2^cA|c2d3A|
A3/A/f2e3/f/|d3/^c/A2f2|g3/e/d2^c3/A/|[1c2d3A:|[2c2d3f|]
|:a3/a/ f3/f/ f3/a/|a3/g/e3f|a3/f/ d3/e/ f3/a/|e3/^c/A3f|e3/^c/d2f2|
e3/^c/A3f|g3/e/d2^c3/A/|^c2d4:|
(:musicend:)

(:music:)
